X: 7817
T:Sister Jean
R:Polka
R:Reel
O:Shetland
M:4/4
K:D
AB de f2 fd | g2 ge f3g | f2ef ge cd \
|1 e2 d2 de dB :|2 e2d2 defg |
|:\
a2 A2 AF Ad | B2 G2 A3g | f2 ef ge cd \
|1 e2d2 de fg :|2 e2d2 d4 |]
